X:1
T:[ID 2-41a]
T:[ID 2-41a]
T:Bezeichnung standardisiert: Polonaise nach Blitz; Polonaise In dieser Quelle auch als: Polonoise In dieser Quelle auch als: Polonoise Nach Blitz In dieser Quelle auch als: Polon\"aise In anderer Quelle: Polonoise - Hs. \"OVLA E-97/E-149 um 1750 (Anm. S. Wascher);  Polonaise, Niederschrift L. Mozart 1762 (Anm. S. Wascher);
T:Urheber unbekannt Erstbeleg: um 1750 (Wissenschaftliche Sch\"atzung Datum in der hier transkribierten schriftlichen Quelle: 1767
C:Urheber unbekannt
C:Erstbeleg: um 1750 (Wissenschaftliche Sch\"atzung
C:Datum in der hier transkribierten schriftlichen Quelle: 1767
L:1/8
M:3/4
K:C
V:1 treble 
V:1
 c2 G2 c2 | dd d/e/f/d/ e2 | dd d/e/f/d/ e2 | ca ag/f/ ge | df fe/d/ ec | B/c/d/B/ c2 c2 :: %6
"^O)" (3Bcd G2 (3def | e/f/g/e/ c/d/e/c/ d2 |"^O)" (3Bcd G2 (3def | e/f/g/e/ c/d/e/c/ d2 | %10
 ca ag/f/ ge | df fe/d/ ec | B/c/d/B/ c2 C2 :| %13

